en/_assets/data-transfer/icons/oracle-icon.svg

<svg width="32" height="21" viewBox="0 0 32 21" fill="none" xmlns="http://www.w3.org/2000/svg">
<path d="M10.1412 20.3381C8.81613 20.3564 7.50063 20.1136 6.27109 19.6237C5.04154 19.1338 3.92249 18.4066 2.97893 17.4843C2.03537 16.5621 1.28613 15.4632 0.774739 14.2514C0.263347 13.0397 0 11.7393 0 10.4259C0 9.1124 0.263347 7.81203 0.774739 6.6003C1.28613 5.38858 2.03537 4.28966 2.97893 3.36741C3.92249 2.44516 5.04154 1.71795 6.27109 1.22805C7.50063 0.738147 8.81613 0.495316 10.1412 0.513662H21.8588C23.1839 0.495316 24.4994 0.738147 25.7289 1.22805C26.9585 1.71795 28.0775 2.44516 29.0211 3.36741C29.9646 4.28966 30.7139 5.38858 31.2253 6.6003C31.7367 7.81203 32 9.1124 32 10.4259C32 11.7393 31.7367 13.0397 31.2253 14.2514C30.7139 15.4632 29.9646 16.5621 29.0211 17.4843C28.0775 18.4066 26.9585 19.1338 25.7289 19.6237C24.4994 20.1136 23.1839 20.3564 21.8588 20.3381H10.1412ZM21.5564 16.8335C23.2573 16.8128 24.8815 16.1285 26.0769 14.929C27.2723 13.7295 27.9426 12.1114 27.9426 10.4254C27.9426 8.73935 27.2723 7.12124 26.0769 5.92174C24.8815 4.72223 23.2573 4.03797 21.5564 4.01726H10.4436C9.59394 4.01471 8.75214 4.1787 7.96664 4.49981C7.18115 4.82092 6.46746 5.29281 5.86664 5.88832C5.26582 6.48384 4.78973 7.19122 4.46576 7.96978C4.14179 8.74835 3.97634 9.58272 3.97891 10.4249C3.97891 13.9295 6.90589 16.8335 10.4446 16.8335H21.5574" fill="#C74634"/>
</svg>

<svg xmlns="http://www.w3.org/2000/svg" width="32" height="21" fill="none"><path fill="#C74634" d="M10.141 20.338a10.081 10.081 0 0 1-3.87-.714 10.01 10.01 0 0 1-3.292-2.14 9.908 9.908 0 0 1-2.204-3.233 9.837 9.837 0 0 1 0-7.65 9.909 9.909 0 0 1 2.204-3.234A10.01 10.01 0 0 1 6.27 1.228a10.08 10.08 0 0 1 3.87-.714H21.86a10.08 10.08 0 0 1 3.87.714 10.01 10.01 0 0 1 3.292 2.14A9.91 9.91 0 0 1 31.225 6.6a9.837 9.837 0 0 1 0 7.651 9.909 9.909 0 0 1-2.204 3.233 10.01 10.01 0 0 1-3.292 2.14 10.08 10.08 0 0 1-3.87.714H10.14Zm11.415-3.505a6.494 6.494 0 0 0 4.52-1.904 6.38 6.38 0 0 0 1.867-4.504 6.38 6.38 0 0 0-1.866-4.503 6.494 6.494 0 0 0-4.52-1.905H10.443a6.495 6.495 0 0 0-2.477.483 6.45 6.45 0 0 0-2.1 1.388A6.385 6.385 0 0 0 4.466 7.97a6.34 6.34 0 0 0-.487 2.455c0 3.505 2.927 6.409 6.466 6.409h11.112"/></svg>
